X:1
T:F Major James P. Carrell, 1821
T:Unknown Author, First appearing in Carrell, 1821
T:Geneva
T:Transcribed from Songs of Zion, 1821
%%score [ 1 2 3 4 ]
L:1/8
Q:1/4=150
M:6/4
K:F
V:1 treble nm="Tr." snm="Tr."
V:2 treble nm="C." snm="C."
V:3 treble-8 nm="T." snm="T."
V:4 bass nm="B." snm="B."
V:1
"^1. Come, my friends, and taste with me  Full salvation running free,       Je  – sus   now    in–vites   us:     He  presents  his  charming  grace;" c4 c2 A4 F2 | %1
 c4 c2 c4 z2 | f4 d2 c4 A2 | (F2 G2) A2 c4 z2 | c4 B2 (A2 B2) c2 | c6 c6 | f4 f2 f4 e2 | %7
 (d2 e2) f2 c4 z2 | %8
"^1. See  his  love–ly  smi–ling  face!  Will you now your Lord embrace,  Heav'n  and  all  its  hap– pi– ness,     Which  to  him    u–nites   us?" A4 c2 d4 d2 | %9
 B4 G2 c4 z2 | B4 B2 A4 c2 | d4 e2 f4 z2 | (e2 f2) g2 f4 e2 | d4 c2 c4 z2 | d4 f2 (d2 c2) A2 | %15
 c6 c6 |] %16
V:2
"^2. Earthly comfort soon will fly,     And  its  joys  will  shortly  die,         Fa–ding  fast,  they  leave  us;  Beauteous grace your Lord will grant," F4 E2 D4 F2 | %1
 G4 G2 F4 z2 | F4 G2 A4 A2 | G4 A2 G4 z2 | A4 F2 (F2 G2) A2 | G6 F6 | F4 F2 A4 G2 | %7
 (F2 G2) A2 G4 z2 | %8
"^2. He'll  supply  your  every want;       All  that for  his  mer–cy  pant.        He  will  give without  restraint;        Je  – sus   will    re – ceive   us." (A2 G2) A2 F4 D2 | %9
 G4 G2 G4 z2 | F4 F2 F4 F2 | D4 G2 F4 z2 | (C2 D2) E2 F4 G2 | A4 G2 c4 z2 | F4 F2 (A2 c2) A2 | %15
 G6 F6 |] %16
V:3
"^3. Hea–ven is a delightsome place, There are streams of perfect peace,    Which  my  passions  capture:   All   the  happy   ten – ants  there" F4 G2 A4 c2 | %1
 G4 G2 F4 z2 | c4 d2 f4 f2 | d4 c2 c4 z2 | c4 d2 (A2 G2) F2 | G6 F6 | F4 F2 A4 G2 | %7
 (F2 G2) A2 c4 z2 | %8
"^3. His  own glorious image bear,          All  his love and bounty share;       And  their  Je– sus   ev – er  near,      Heightens  still  their rap– ture!" (c2 d2) e2 f4 f2 | %9
 d4 c2 c4 z2 | f4 f2 c4 A2 | d4 c2 B4 z2 | A4 B2 c4 c2 | d4 g2 f4 z2 | f4 c2 (d2 c2) A2 | G6 F6 |] %16
V:4
 F,4 E,2 F,4 F,2 | C,4 C,2 F,4 z2 | A,4 G,2 F,4 F,2 | D,4 A,,2 C,4 z2 | F,4 F,2 D,4 D,2 | C,6 F,6 | %6
 F,4 F,2 F,4 G,2 | (F,2 E,2) D,2 C,4 z2 | %8
"^________________________________________\nEdited by B. C. Johnston, 2017\n   1. Measure 3, Bass: last note changed from B to F." F,4 C,2 F,4 A,2 | %9
 D,4 G,2 C,4 z2 | F,4 F,2 F,4 A,2 | G,4 G,2 B,4 z2 | C4 B,2 A,4 G,2 | F,4 E,2 F,4 z2 | %14
 B,,4 C,2 (D,2 E,2) F,2 | C,6 F,6 |] %16

